X:1480
T:Drukken Karl Ecken
M:3/4
O:Sweden
R:Mazurka
Z:Richard Robinson 
%%TUNEURL: http://www.leeds.ac.uk/music/Info/RRTuneBk/gettune/000007ab.html
%%ID:000007ab
K:D
A|\
dAF2 F2|FGE3 A|BA BA cA|dA cA BA|\
dAF2 F2|FGE3 A|BA BA cA|d2 d3:|
|: A|\
fA fA fA|g2 g3f|ed ce a2|ba fd A2|\
fA fA fA|g2 g3f|ed ce ac|d2 d3:|
